X:1

T:La Bastringue

M:C|

L:1/8

K:D

f2ff f2gf|e2c2d3d|c2d2efec|d2e2f2d2|f2ff f2gf|e2c2d2A2|

g3fe2d2|B2c2d2A2:|

|:d2fd ad fd|=c2ec gc ec|d2fd ad fd|bg ec dc BA|

d2fd ad fd|=c2ec gc ec|d2fd ad fa|bg ec d2 (3ABc:|

